image/benefits/icon-5.svg

<svg width="49" height="48" viewBox="0 0 49 48" fill="none" xmlns="http://www.w3.org/2000/svg">
<path d="M8.66406 24H14.4535C16.7789 24 18.6641 22.2091 18.6641 20V18" stroke="#2E2E2E" stroke-width="2"/>
<path d="M35.6641 20L28.0487 20C26.1794 20 24.6641 21.7909 24.6641 24V25.5" stroke="#2E2E2E" stroke-width="2"/>
<path d="M35.6641 16H28.0119C26.5771 16 24.6641 16 24.6641 13.619C24.6641 11.7143 24.6641 12.3175 24.6641 12" stroke="#2E2E2E" stroke-width="2"/>
<circle cx="22.0221" cy="18.358" r="14.358" stroke="#2E2E2E" stroke-width="2"/>
<path d="M29.0952 31.6561L32.1043 29.4028L40.6624 40.8314C40.9934 41.2735 40.9034 41.9002 40.4613 42.2313L39.0532 43.2858C38.6111 43.6168 37.9843 43.5268 37.6533 43.0847L29.0952 31.6561Z" stroke="#2E2E2E" stroke-width="2"/>
<path d="M31.6172 34.6756L34.0169 32.7559" stroke="#2E2E2E" stroke-width="2"/>
<circle cx="24.3872" cy="26.7227" r="2.21845" transform="rotate(-45 24.3872 26.7227)" stroke="#C63031" stroke-width="2"/>
<circle cx="24.3872" cy="9.72266" r="2.21845" transform="rotate(-45 24.3872 9.72266)" stroke="#C63031" stroke-width="2"/>
<path d="M15.6641 16H7.66406" stroke="#2E2E2E" stroke-width="2"/>
<circle cx="18.3872" cy="15.7227" r="2.21845" transform="rotate(-45 18.3872 15.7227)" stroke="#C63031" stroke-width="2"/>
</svg>

<svg width="49" height="48" fill="none" xmlns="http://www.w3.org/2000/svg"><path d="M8.664 24h5.79c2.325 0 4.21-1.79 4.21-4v-2M35.664 20H28.05c-1.87 0-3.385 1.79-3.385 4v1.5M35.664 16h-7.652c-1.435 0-3.348 0-3.348-2.381V12" stroke="#2E2E2E" stroke-width="2"/><circle cx="22.022" cy="18.358" r="14.358" stroke="#2E2E2E" stroke-width="2"/><path d="m29.095 31.656 3.01-2.253 8.557 11.428a1 1 0 0 1-.2 1.4l-1.409 1.055a1 1 0 0 1-1.4-.201l-8.558-11.429ZM31.617 34.676l2.4-1.92" stroke="#2E2E2E" stroke-width="2"/><circle cx="24.387" cy="26.723" r="2.218" transform="rotate(-45 24.387 26.723)" stroke="#C63031" stroke-width="2"/><circle cx="24.387" cy="9.723" r="2.218" transform="rotate(-45 24.387 9.723)" stroke="#C63031" stroke-width="2"/><path d="M15.664 16h-8" stroke="#2E2E2E" stroke-width="2"/><circle cx="18.387" cy="15.723" r="2.218" transform="rotate(-45 18.387 15.723)" stroke="#C63031" stroke-width="2"/></svg>
